X: 100221
M: 3/4
L: 1/8
K: G
u(DGA) |\
g4 (fe) | (ed) dz ue2 |  (dc) cz ud2 | cB Bz uG2 |\
g4 (fe) | (ed) dz ue2 | (d^c) cz uBA | d3 (AfA) |\
e3 (A^cA) | d3 (AfA) |
e3 (A^cA) | .d(e^cede |\
=cdBdAd) | G2 zu(DGA) | B3 (GBc) | d3(eBe) | (dcA)FAe | (dBG)DGA |
g4 (fe) | (ed) dz ue2 | (dc) cz ud2 | [g2B2D2G,2] z2 "^Fine."z2 |]


